X:1
T:Title
%%score { 1 | 2 }
L:1/8
Q:1/4=96
M:2/4
K:Eb
V:1 treble nm="Grand Piano"
V:2 bass 
V:1
 EG [GB][Ge] | [Ad]2 [Ac]2 | [DF][FA] [Ac][FAd] | [EGc]2 [B,EG]2 | [B,EG][B,FA] [GB][Ac] | %5
w: J.~M.~Black * * *|||||
 [GB]G EF | [EG]2 [DF]2 | [DF]4 | EG [GB][Ge] | [Bd]2 [Ac]2 | [DF][FA] [DAc][DAd] | [Ac]2 [GB]2 | %12
w: |||||||
 [GB][Gc] [Gd][Ge] | [EG][FA] [GB][EAc] | [B,GB]2 [A,B,D]2 | [G,B,E]4 | [Ge]2 [Bd]>[Ac] | %17
w: |||||
 [GB]2 [EG]2 | [FA][FA] [EG]>[DF] | E4 | c2 c>c | e2 c2 | [Ac][GB] [GB]>[_G=A] | [GB]4 | G2 G>G | %25
w: ||||||||
 [GB] [FA]3 | [FA]2 [DFA]>[DFA] | [Ac] [GB]3 | [Ge]2 [GB]>[GB] | [Bd] [Ac]3 | [GB]2 [Ad]2 | %31
w: ||||||
 [Ge]4 |] %32
w: |
V:2
 [E,G,][E,B,E] [E,B,][E,B,] | [B,,B,]2 [B,,B,]2 | [B,,B,][B,,B,] [B,,B,]B,, | E,2 E,2 | %4
 E,E, [E,E][E,E] | [E,E][E,B,E] [E,G,][E,A,E] | [B,,B,]2 [B,,B,]2 | [B,,B,]4 | %8
 [E,G,][E,B,E] [E,B,][E,B,] | [B,,B,]2 [B,,B,]2 | [B,,B,][B,,B,] B,,B,, | [E,E]2 [E,E]2 | %12
 [E,E][E,E] [E,E][E,E] | [G,B,][F,A,] [E,G,]A,, | B,,2 B,,2 | E,4 | [E,B,]2 [E,E]>[E,E] | %17
 [E,E]2 [E,B,]2 | [B,,B,][B,,B,] [B,,B,]>[B,,A,] | [E,G,]4 | [A,E]2 [A,E]>[A,E] | [A,CA]2 [A,EA]2 | %22
 [E,E][E,E] [E,E]>[E,E] | [E,E]4 | [E,B,E]2 [E,B,E]>[E,B,E] | [B,,B,] [B,,B,]3 | [B,,B,]2 B,,>B,, | %27
 [E,E] [E,E]3 | [E,B,]2 [E,E]>[E,E] | [A,E] [A,E]3 | [B,E]2 [B,,B,]2 | [E,B,]4 |] %32

